48x48/apps/geogebra.svg

<svg viewBox="0 0 48 48"><defs><linearGradient id="linearGradient3764" x1="1" x2="47" gradientUnits="userSpaceOnUse" gradientTransform="matrix(0,-1,1,0,-1.5e-6,47.999998)"><stop stop-color="#e4e4e4" stop-opacity="1"/><stop offset="1" stop-color="#eee" stop-opacity="1"/></linearGradient><clipPath id="clipPath-151811596"><g transform="translate(0,-1004.3622)"><path d="m -24 13 c 0 1.105 -0.672 2 -1.5 2 -0.828 0 -1.5 -0.895 -1.5 -2 0 -1.105 0.672 -2 1.5 -2 0.828 0 1.5 0.895 1.5 2 z" transform="matrix(15.333333,0,0,11.5,414.99999,878.8622)" fill="#1890d0"/></g></clipPath><clipPath id="clipPath-157313340"><g transform="translate(0,-1004.3622)"><path d="m -24 13 c 0 1.105 -0.672 2 -1.5 2 -0.828 0 -1.5 -0.895 -1.5 -2 0 -1.105 0.672 -2 1.5 -2 0.828 0 1.5 0.895 1.5 2 z" transform="matrix(15.333333,0,0,11.5,414.99999,878.8622)" fill="#1890d0"/></g></clipPath></defs><g><path d="m 36.31 5 c 5.859 4.062 9.688 10.831 9.688 18.5 c 0 12.426 -10.07 22.5 -22.5 22.5 c -7.669 0 -14.438 -3.828 -18.5 -9.688 c 1.037 1.822 2.306 3.499 3.781 4.969 c 4.085 3.712 9.514 5.969 15.469 5.969 c 12.703 0 23 -10.298 23 -23 c 0 -5.954 -2.256 -11.384 -5.969 -15.469 c -1.469 -1.475 -3.147 -2.744 -4.969 -3.781 z m 4.969 3.781 c 3.854 4.113 6.219 9.637 6.219 15.719 c 0 12.703 -10.297 23 -23 23 c -6.081 0 -11.606 -2.364 -15.719 -6.219 c 4.16 4.144 9.883 6.719 16.219 6.719 c 12.703 0 23 -10.298 23 -23 c 0 -6.335 -2.575 -12.06 -6.719 -16.219 z" opacity="0.05"/><path d="m 41.28 8.781 c 3.712 4.085 5.969 9.514 5.969 15.469 c 0 12.703 -10.297 23 -23 23 c -5.954 0 -11.384 -2.256 -15.469 -5.969 c 4.113 3.854 9.637 6.219 15.719 6.219 c 12.703 0 23 -10.298 23 -23 c 0 -6.081 -2.364 -11.606 -6.219 -15.719 z" opacity="0.1"/><path d="m 31.25 2.375 c 8.615 3.154 14.75 11.417 14.75 21.13 c 0 12.426 -10.07 22.5 -22.5 22.5 c -9.708 0 -17.971 -6.135 -21.12 -14.75 a 23 23 0 0 0 44.875 -7 a 23 23 0 0 0 -16 -21.875 z" opacity="0.2"/></g><g><path d="m 24 1 c 12.703 0 23 10.297 23 23 c 0 12.703 -10.297 23 -23 23 -12.703 0 -23 -10.297 -23 -23 0 -12.703 10.297 -23 23 -23 z" fill="url(#linearGradient3764)" fill-opacity="1"/></g><g/><g><g clip-path="url(#clipPath-151811596)"><g transform="translate(1,1)"><g opacity="0.1"><!-- color: #eeeeee --><g><path d="m 20.801 14.281 c -6.465 2.352 -10.02 8.637 -7.918 14.01 c 2.105 5.375 9.08 7.832 15.543 5.48 c 6.461 -2.352 10.02 -8.641 7.914 -14.02 c -2.105 -5.375 -9.08 -7.828 -15.543 -5.477 m 0.727 1.848 c 5.266 -1.918 10.891 0.063 12.602 4.434 c 1.711 4.367 -1.152 9.441 -6.422 11.359 c -5.27 1.918 -10.898 -0.066 -12.605 -4.438 c -1.711 -4.367 1.156 -9.438 6.426 -11.355 m 0 0" fill="#000" stroke="none" fill-rule="nonzero" fill-opacity="1"/><path d="m 26 14.5 c 0 1.379 -1.121 2.5 -2.5 2.5 c -1.379 0 -2.5 -1.121 -2.5 -2.5 c 0 -1.379 1.121 -2.5 2.5 -2.5 c 1.379 0 2.5 1.121 2.5 2.5 m 0 0" fill="#000" stroke="none" fill-rule="nonzero" fill-opacity="1"/><path d="m 37 18.5 c 0 1.379 -1.121 2.5 -2.5 2.5 c -1.379 0 -2.5 -1.121 -2.5 -2.5 c 0 -1.379 1.121 -2.5 2.5 -2.5 c 1.379 0 2.5 1.121 2.5 2.5 m 0 0" fill="#000" stroke="none" fill-rule="nonzero" fill-opacity="1"/><path d="m 35 29.5 c 0 1.379 -1.121 2.5 -2.5 2.5 c -1.379 0 -2.5 -1.121 -2.5 -2.5 c 0 -1.379 1.121 -2.5 2.5 -2.5 c 1.379 0 2.5 1.121 2.5 2.5 m 0 0" fill="#000" stroke="none" fill-rule="nonzero" fill-opacity="1"/><path d="m 22 33.5 c 0 1.379 -1.121 2.5 -2.5 2.5 c -1.379 0 -2.5 -1.121 -2.5 -2.5 c 0 -1.379 1.121 -2.5 2.5 -2.5 c 1.379 0 2.5 1.121 2.5 2.5 m 0 0" fill="#000" stroke="none" fill-rule="nonzero" fill-opacity="1"/><path d="m 16 23.5 c 0 1.379 -1.121 2.5 -2.5 2.5 c -1.379 0 -2.5 -1.121 -2.5 -2.5 c 0 -1.379 1.121 -2.5 2.5 -2.5 c 1.379 0 2.5 1.121 2.5 2.5 m 0 0" fill="#000" stroke="none" fill-rule="nonzero" fill-opacity="1"/></g></g></g></g></g><g><g clip-path="url(#clipPath-157313340)"><!-- color: #eeeeee --><g><path d="m 20.801 14.281 c -6.465 2.352 -10.02 8.637 -7.918 14.01 c 2.105 5.375 9.08 7.832 15.543 5.48 c 6.461 -2.352 10.02 -8.641 7.914 -14.02 c -2.105 -5.375 -9.08 -7.828 -15.543 -5.477 m 0.727 1.848 c 5.266 -1.918 10.891 0.063 12.602 4.434 c 1.711 4.367 -1.152 9.441 -6.422 11.359 c -5.27 1.918 -10.898 -0.066 -12.605 -4.438 c -1.711 -4.367 1.156 -9.438 6.426 -11.355 m 0 0" fill="#666" stroke="none" fill-rule="nonzero" fill-opacity="1"/><path d="m 26 14.5 c 0 1.379 -1.121 2.5 -2.5 2.5 c -1.379 0 -2.5 -1.121 -2.5 -2.5 c 0 -1.379 1.121 -2.5 2.5 -2.5 c 1.379 0 2.5 1.121 2.5 2.5 m 0 0" fill="#99f" stroke="none" fill-rule="nonzero" fill-opacity="1"/><path d="m 37 18.5 c 0 1.379 -1.121 2.5 -2.5 2.5 c -1.379 0 -2.5 -1.121 -2.5 -2.5 c 0 -1.379 1.121 -2.5 2.5 -2.5 c 1.379 0 2.5 1.121 2.5 2.5 m 0 0" fill="#99f" stroke="none" fill-rule="nonzero" fill-opacity="1"/><path d="m 35 29.5 c 0 1.379 -1.121 2.5 -2.5 2.5 c -1.379 0 -2.5 -1.121 -2.5 -2.5 c 0 -1.379 1.121 -2.5 2.5 -2.5 c 1.379 0 2.5 1.121 2.5 2.5 m 0 0" fill="#99f" stroke="none" fill-rule="nonzero" fill-opacity="1"/><path d="m 22 33.5 c 0 1.379 -1.121 2.5 -2.5 2.5 c -1.379 0 -2.5 -1.121 -2.5 -2.5 c 0 -1.379 1.121 -2.5 2.5 -2.5 c 1.379 0 2.5 1.121 2.5 2.5 m 0 0" fill="#99f" stroke="none" fill-rule="nonzero" fill-opacity="1"/><path d="m 16 23.5 c 0 1.379 -1.121 2.5 -2.5 2.5 c -1.379 0 -2.5 -1.121 -2.5 -2.5 c 0 -1.379 1.121 -2.5 2.5 -2.5 c 1.379 0 2.5 1.121 2.5 2.5 m 0 0" fill="#99f" stroke="none" fill-rule="nonzero" fill-opacity="1"/></g></g></g><g><path d="m 40.03 7.531 c 3.712 4.084 5.969 9.514 5.969 15.469 0 12.703 -10.297 23 -23 23 c -5.954 0 -11.384 -2.256 -15.469 -5.969 4.178 4.291 10.01 6.969 16.469 6.969 c 12.703 0 23 -10.298 23 -23 0 -6.462 -2.677 -12.291 -6.969 -16.469 z" opacity="0.1"/></g></svg>

<?xml version="1.0" encoding="UTF-8" standalone="no"?>
<svg
   xmlns:dc="http://purl.org/dc/elements/1.1/"
   xmlns:cc="http://creativecommons.org/ns#"
   xmlns:rdf="http://www.w3.org/1999/02/22-rdf-syntax-ns#"
   xmlns:svg="http://www.w3.org/2000/svg"
   xmlns="http://www.w3.org/2000/svg"
   xmlns:sodipodi="http://sodipodi.sourceforge.net/DTD/sodipodi-0.dtd"
   xmlns:inkscape="http://www.inkscape.org/namespaces/inkscape"
   viewBox="0 0 48 48"
   id="svg2"
   version="1.1"
   inkscape:version="0.48.4 r9939"
   width="100%"
   height="100%"
   sodipodi:docname="geogebra.svg">
  <metadata
     id="metadata81">
    <rdf:RDF>
      <cc:Work
         rdf:about="">
        <dc:format>image/svg+xml</dc:format>
        <dc:type
           rdf:resource="http://purl.org/dc/dcmitype/StillImage" />
      </cc:Work>
    </rdf:RDF>
  </metadata>
  <sodipodi:namedview
     pagecolor="#ffffff"
     bordercolor="#666666"
     borderopacity="1"
     objecttolerance="10"
     gridtolerance="10"
     guidetolerance="10"
     inkscape:pageopacity="0"
     inkscape:pageshadow="2"
     inkscape:window-width="1375"
     inkscape:window-height="876"
     id="namedview79"
     showgrid="false"
     inkscape:zoom="4.9166667"
     inkscape:cx="-0.20338983"
     inkscape:cy="24"
     inkscape:window-x="65"
     inkscape:window-y="24"
     inkscape:window-maximized="1"
     inkscape:current-layer="svg2" />
  <defs
     id="defs4">
    <linearGradient
       id="linearGradient3764"
       x1="1"
       x2="47"
       gradientUnits="userSpaceOnUse"
       gradientTransform="matrix(0,-1,1,0,-1.5e-6,47.999998)">
      <stop
         stop-color="#e4e4e4"
         stop-opacity="1"
         id="stop7" />
      <stop
         offset="1"
         stop-color="#eee"
         stop-opacity="1"
         id="stop9" />
    </linearGradient>
    <clipPath
       id="clipPath-151811596">
      <g
         transform="translate(0,-1004.3622)"
         id="g12">
        <path
           d="m -24 13 c 0 1.105 -0.672 2 -1.5 2 -0.828 0 -1.5 -0.895 -1.5 -2 0 -1.105 0.672 -2 1.5 -2 0.828 0 1.5 0.895 1.5 2 z"
           transform="matrix(15.333333,0,0,11.5,414.99999,878.8622)"
           fill="#1890d0"
           id="path14" />
      </g>
    </clipPath>
    <clipPath
       id="clipPath-157313340">
      <g
         transform="translate(0,-1004.3622)"
         id="g17">
        <path
           d="m -24 13 c 0 1.105 -0.672 2 -1.5 2 -0.828 0 -1.5 -0.895 -1.5 -2 0 -1.105 0.672 -2 1.5 -2 0.828 0 1.5 0.895 1.5 2 z"
           transform="matrix(15.333333,0,0,11.5,414.99999,878.8622)"
           fill="#1890d0"
           id="path19" />
      </g>
    </clipPath>
    <linearGradient
       id="linearGradient3764-8"
       x1="1"
       x2="47"
       gradientUnits="userSpaceOnUse"
       gradientTransform="matrix(0,-1,1,0,-1.5e-6,47.999998)">
      <stop
         stop-color="#b5945b"
         stop-opacity="1"
         id="stop7-0" />
      <stop
         offset="1"
         stop-color="#bb9e69"
         stop-opacity="1"
         id="stop9-6" />
    </linearGradient>
    <clipPath
       id="clipPath-899834956">
      <g
         transform="translate(0,-1004.3622)"
         id="g12-2">
        <path
           d="m -24 13 c 0 1.105 -0.672 2 -1.5 2 -0.828 0 -1.5 -0.895 -1.5 -2 0 -1.105 0.672 -2 1.5 -2 0.828 0 1.5 0.895 1.5 2 z"
           transform="matrix(15.333333,0,0,11.5,414.99999,878.8622)"
           fill="#1890d0"
           id="path14-6" />
      </g>
    </clipPath>
    <clipPath
       id="clipPath-909443126">
      <g
         transform="translate(0,-1004.3622)"
         id="g17-20">
        <path
           d="m -24 13 c 0 1.105 -0.672 2 -1.5 2 -0.828 0 -1.5 -0.895 -1.5 -2 0 -1.105 0.672 -2 1.5 -2 0.828 0 1.5 0.895 1.5 2 z"
           transform="matrix(15.333333,0,0,11.5,414.99999,878.8622)"
           fill="#1890d0"
           id="path19-30" />
      </g>
    </clipPath>
    <clipPath
       id="clipPath-909443126-7">
      <g
         transform="translate(0,-1004.3622)"
         id="g17-2">
        <path
           style="fill:#1890d0"
           inkscape:connector-curvature="0"
           d="m -24,13 c 0,1.105 -0.672,2 -1.5,2 -0.828,0 -1.5,-0.895 -1.5,-2 0,-1.105 0.672,-2 1.5,-2 0.828,0 1.5,0.895 1.5,2 z"
           transform="matrix(15.333333,0,0,11.5,414.99999,878.8622)"
           id="path19-3" />
      </g>
    </clipPath>
    <linearGradient
       id="linearGradient3759">
      <stop
         id="stop3761"
         offset="0"
         style="stop-color:#a75e15;stop-opacity:1;" />
      <stop
         id="stop3763"
         offset="1"
         style="stop-color:#ffffff;stop-opacity:0;" />
    </linearGradient>
    <linearGradient
       id="linearGradient3777">
      <stop
         id="stop3779"
         offset="0"
         style="stop-color:#e0dd00;stop-opacity:1;" />
      <stop
         id="stop3781"
         offset="1"
         style="stop-color:#000000;stop-opacity:0;" />
    </linearGradient>
    <clipPath
       id="clipPath-157313340-0">
      <g
         transform="translate(0,-1004.3622)"
         id="g17-6">
        <path
           style="fill:#1890d0"
           inkscape:connector-curvature="0"
           d="m -24,13 c 0,1.105 -0.672,2 -1.5,2 -0.828,0 -1.5,-0.895 -1.5,-2 0,-1.105 0.672,-2 1.5,-2 0.828,0 1.5,0.895 1.5,2 z"
           transform="matrix(15.333333,0,0,11.5,414.99999,878.8622)"
           id="path19-9" />
      </g>
    </clipPath>
  </defs>
  <g
     id="g33" />
  <g
     id="g3105">
    <g
       inkscape:label="shadows"
       id="layer2">
      <rect
         ry="13.03658"
         rx="13.03658"
         y="1"
         x="1"
         height="46"
         width="46"
         id="rect3007"
         style="opacity:0.1;fill:#000000;fill-opacity:1;fill-rule:nonzero;stroke:none" />
      <rect
         style="opacity:0.1;fill:#000000;fill-opacity:1;fill-rule:nonzero;stroke:none"
         id="rect3011"
         width="47"
         height="47"
         x="0.5"
         y="0.5"
         rx="13.319984"
         ry="13.319984" />
      <rect
         style="opacity:0.1;fill:#000000;fill-opacity:1;fill-rule:nonzero;stroke:none"
         id="rect3013"
         width="46.5"
         height="46.5"
         x="0.75"
         y="0.75"
         rx="13.178282"
         ry="13.178282" />
    </g>
    <g
       style="display:inline"
       inkscape:label="background-color"
       id="layer1">
      <rect
         transform="matrix(0,-1,1,0,0,0)"
         ry="12.753176"
         rx="12.753176"
         y="1.5"
         x="-46.5"
         height="45"
         width="45"
         id="rect2988"
         style="fill:#f2f2f2;fill-opacity:1;fill-rule:nonzero;stroke:none" />
    </g>
  </g>
  <g
     id="g57-5">
    <g
       clip-path="url(#clipPath-157313340-0)"
       id="g59-7">
      <!-- color: #eeeeee -->
      <g
         id="g61-9">
        <path
           style="fill:#666666;fill-opacity:1;fill-rule:nonzero;stroke:none"
           inkscape:connector-curvature="0"
           d="m 20.801,14.281 c -6.465,2.352 -10.02,8.637 -7.918,14.01 2.105,5.375 9.08,7.832 15.543,5.48 6.461,-2.352 10.02,-8.641 7.914,-14.02 -2.105,-5.375 -9.08,-7.828 -15.543,-5.477 m 0.727,1.848 c 5.266,-1.918 10.891,0.063 12.602,4.434 1.711,4.367 -1.152,9.441 -6.422,11.359 -5.27,1.918 -10.898,-0.066 -12.605,-4.438 -1.711,-4.367 1.156,-9.438 6.426,-11.355 m 0,0"
           id="path63-7" />
        <path
           style="fill:#9999ff;fill-opacity:1;fill-rule:nonzero;stroke:none"
           inkscape:connector-curvature="0"
           d="M 26,14.5 C 26,15.879 24.879,17 23.5,17 22.121,17 21,15.879 21,14.5 21,13.121 22.121,12 23.5,12 c 1.379,0 2.5,1.121 2.5,2.5 m 0,0"
           id="path65-0" />
        <path
           style="fill:#9999ff;fill-opacity:1;fill-rule:nonzero;stroke:none"
           inkscape:connector-curvature="0"
           d="M 37,18.5 C 37,19.879 35.879,21 34.5,21 33.121,21 32,19.879 32,18.5 32,17.121 33.121,16 34.5,16 c 1.379,0 2.5,1.121 2.5,2.5 m 0,0"
           id="path67-4" />
        <path
           style="fill:#9999ff;fill-opacity:1;fill-rule:nonzero;stroke:none"
           inkscape:connector-curvature="0"
           d="M 35,29.5 C 35,30.879 33.879,32 32.5,32 31.121,32 30,30.879 30,29.5 30,28.121 31.121,27 32.5,27 c 1.379,0 2.5,1.121 2.5,2.5 m 0,0"
           id="path69-5" />
        <path
           style="fill:#9999ff;fill-opacity:1;fill-rule:nonzero;stroke:none"
           inkscape:connector-curvature="0"
           d="M 22,33.5 C 22,34.879 20.879,36 19.5,36 18.121,36 17,34.879 17,33.5 17,32.121 18.121,31 19.5,31 c 1.379,0 2.5,1.121 2.5,2.5 m 0,0"
           id="path71-8" />
        <path
           style="fill:#9999ff;fill-opacity:1;fill-rule:nonzero;stroke:none"
           inkscape:connector-curvature="0"
           d="M 16,23.5 C 16,24.879 14.879,26 13.5,26 12.121,26 11,24.879 11,23.5 11,22.121 12.121,21 13.5,21 c 1.379,0 2.5,1.121 2.5,2.5 m 0,0"
           id="path73-7" />
      </g>
    </g>
  </g>
</svg>
